svg/emoji/unhappy_dizzy_line.svg

<?xml version="1.0" encoding="UTF-8"?>
<svg width="24px" height="24px" viewBox="0 0 24 24" version="1.1" xmlns="http://www.w3.org/2000/svg" xmlns:xlink="http://www.w3.org/1999/xlink">
    <title>unhappy_dizzy_line</title>
    <g id="Icon" stroke="none" stroke-width="1" fill="none" fill-rule="evenodd">
        <g id="Emoji" transform="translate(0.000000, -96.000000)">
            <g id="unhappy_dizzy_line" transform="translate(0.000000, 96.000000)">
                <path d="M24,0 L24,24 L0,24 L0,0 L24,0 Z M12.5935,23.2578 L12.5819,23.2595 L12.5109,23.295 L12.4919,23.2987 L12.4767,23.295 L12.4057,23.2595 C12.3958,23.2564 12.387,23.259 12.3821,23.2649 L12.378,23.2758 L12.3609,23.7031 L12.3659,23.7235 L12.3769,23.7357 L12.4805,23.8097 L12.4953,23.8136 L12.5071,23.8097 L12.6107,23.7357 L12.6233,23.7197 L12.6267,23.7031 L12.6096,23.2758 C12.6076,23.2657 12.601,23.2593 12.5935,23.2578 Z M12.8584,23.1453 L12.8445,23.1473 L12.6598,23.2397 L12.6499,23.2499 L12.6472,23.2611 L12.6651,23.6906 L12.6699,23.7034 L12.6784,23.7105 L12.8793,23.8032 C12.8914,23.8069 12.9022,23.803 12.9078,23.7952 L12.9118,23.7812 L12.8777,23.1665 C12.8753,23.1546 12.8674,23.147 12.8584,23.1453 Z M12.143,23.1473 C12.1332,23.1424 12.1222,23.1453 12.1156,23.1526 L12.1099,23.1665 L12.0758,23.7812 C12.0751,23.7927 12.0828,23.8019 12.0926,23.8046 L12.1083,23.8032 L12.3092,23.7105 L12.3186,23.7024 L12.3225,23.6906 L12.3404,23.2611 L12.3372,23.2485 L12.3278,23.2397 L12.143,23.1473 Z" id="MingCute" fill-rule="nonzero"></path>
                <path d="M12,4 C7.58172,4 4,7.58172 4,12 C4,16.4183 7.58172,20 12,20 C16.4183,20 20,16.4183 20,12 C20,7.58172 16.4183,4 12,4 Z M2,12 C2,6.47715 6.47715,2 12,2 C17.5228,2 22,6.47715 22,12 C22,17.5228 17.5228,22 12,22 C6.47715,22 2,17.5228 2,12 Z M7.29291,8.29289 C7.68343,7.90237 8.3166,7.90237 8.70712,8.29289 L9.00002,8.58579 L9.29289,8.29291 C9.68342,7.90238 10.3166,7.90238 10.7071,8.29291 C11.0976,8.68343 11.0976,9.3166 10.7071,9.70712 L10.4142,10 L10.7071,10.2929 C11.0976,10.6834 11.0976,11.3166 10.7071,11.7071 C10.3166,12.0976 9.68343,12.0976 9.29291,11.7071 L9.00002,11.4142 L8.70711,11.7071 C8.31658,12.0976 7.68342,12.0976 7.29289,11.7071 C6.90237,11.3166 6.90237,10.6834 7.29289,10.2929 L7.5858,10 L7.29291,9.70711 C6.90238,9.31658 6.90238,8.68342 7.29291,8.29289 Z M13.293,8.29289 C13.6835,7.90237 14.3166,7.90237 14.7072,8.29289 L15,8.58576 L15.2929,8.29289 C15.6834,7.90237 16.3166,7.90237 16.7071,8.29289 C17.0976,8.68342 17.0976,9.31658 16.7071,9.70711 L16.4142,9.99997 L16.7072,10.2929 C17.0977,10.6834 17.0977,11.3166 16.7072,11.7071 C16.3166,12.0976 15.6835,12.0976 15.293,11.7071 L15,11.4142 L14.7071,11.7071 C14.3166,12.0976 13.6834,12.0976 13.2929,11.7071 C12.9024,11.3166 12.9024,10.6834 13.2929,10.2929 L13.5858,9.99997 L13.293,9.70711 C12.9024,9.31658 12.9024,8.68342 13.293,8.29289 Z M8.69245,15.2503 C9.57326,14.4728 10.7326,14 12,14 C13.2674,14 14.4268,14.4728 15.3076,15.2503 C15.7216,15.6157 15.761,16.2477 15.3956,16.6617 C15.0301,17.0758 14.3982,17.1152 13.9841,16.7497 C13.4546,16.2824 12.7615,16 12,16 C11.2385,16 10.5454,16.2824 10.0159,16.7497 C9.60185,17.1152 8.96991,17.0758 8.60445,16.6617 C8.23898,16.2477 8.27838,15.6157 8.69245,15.2503 Z" id="形状" fill="#09244B"></path>
            </g>
        </g>
    </g>
</svg>

<svg xmlns="http://www.w3.org/2000/svg" width="24" height="24"><g fill="none" fill-rule="evenodd"><path d="M24 0v24H0V0h24ZM12.594 23.258l-.012.002-.071.035-.02.004-.014-.004-.071-.036c-.01-.003-.019 0-.024.006l-.004.01-.017.428.005.02.01.013.104.074.015.004.012-.004.104-.074.012-.016.004-.017-.017-.427c-.002-.01-.009-.017-.016-.018Zm.264-.113-.014.002-.184.093-.01.01-.003.011.018.43.005.012.008.008.201.092c.012.004.023 0 .029-.008l.004-.014-.034-.614c-.003-.012-.01-.02-.02-.022Zm-.715.002a.023.023 0 0 0-.027.006l-.006.014-.034.614c0 .012.007.02.017.024l.015-.002.201-.093.01-.008.003-.011.018-.43-.003-.012-.01-.01-.184-.092Z"/><path fill="#09244B" d="M12 4a8 8 0 1 0 0 16 8 8 0 0 0 0-16ZM2 12C2 6.477 6.477 2 12 2s10 4.477 10 10-4.477 10-10 10S2 17.523 2 12Zm5.293-3.707a1 1 0 0 1 1.414 0L9 8.586l.293-.293a1 1 0 1 1 1.414 1.414l-.293.293.293.293a1 1 0 0 1-1.414 1.414L9 11.414l-.293.293a1 1 0 0 1-1.414-1.414L7.586 10l-.293-.293a1 1 0 0 1 0-1.414Zm6 0a1 1 0 0 1 1.414 0l.293.293.293-.293a1 1 0 1 1 1.414 1.414l-.293.293.293.293a1 1 0 0 1-1.414 1.414L15 11.414l-.293.293a1 1 0 0 1-1.414-1.414l.293-.293-.293-.293a1 1 0 0 1 0-1.414Zm-4.6 6.957A4.984 4.984 0 0 1 12 14c1.267 0 2.427.473 3.308 1.25a1 1 0 0 1-1.324 1.5A2.985 2.985 0 0 0 12 16c-.761 0-1.455.282-1.984.75a1 1 0 1 1-1.324-1.5Z"/></g></svg>
